X: 994
T: Hem Cemalin Gösterip
C: Zeki Duygulu
O: Turkey
F: http://compmusic.upf.edu/node/140
N: huseyni--sarki--musemmen--hem_cemalin--zeki_duygulu
N: makam= huseyni
N: form= sarki
N: usul= musemmen = 8/8
M: 8/8
L: 1/16
K: C _2/4B ^3/4f  
Q: 1/4=120
%%MIDI tuningsystem comma53
g2f2 (3gfe{=f}e4e2 {f}e2d2  | d3/2e/d2 e2e2 dcd2 {e}d2e2  | \
w:  Hem  *  ce *  *  *  ma lin   |  gös *  *  te rip  *  *  çek  | 
c2{d}c2 d2e2 dcd2 (3cBAA2  | 
w:  mek  *  *  o lur  *  *  mu   | 
d2{e}d2 e2e4a3/2g/ fed2  | g2f2 g2a2 {c'}_1/4bag3/2f/ {g}fe{f}e2  | \
w:  ken *  *  di ni  çek  |  mek  *  o lur  *  *  *  mu   | 
d2{e}d2 e2e4ed cB/A/A2  | 
w:  ken *  *  di ni   SAZ  | 
g2f2 (3gfe{=f}e4e2 {f}e2d2  | d3/2e/d2 e2e2 dcd2 {e}d2e2  | \
w:  Hem  *  ce *  *  *  ma lin   |  gös *  *  te rip  *  *  çek  | 
c2{d}c2 d2e2 dcd2 (3cBAA2  | 
w:  mek  *  *  o lur  *  *  mu   | 
d2{e}d2 e2e4a3/2g/ fed2  | g2f2 g2a2 {c'}_1/4bag3/2f/ {g}fe{f}e2  | \
w:  ken *  *  di ni  çek  |  mek  *  o lur  *  *  *  mu   | 
d2{e}d2 e2e4e/f/e/d/ efg2  | 
w:  ken *  *  di ni   SAZ  | 
g/f/g/a/gf ^2/4fee2 {=f}eda2 g2fe  | \
w:  Böy *  *  *  *  *  le  *  aş *  *  *  kın   | 
e2{^f}e2 edd2 {f}edd4e2  | 
w:  ıs *  *  tı *  ra *  *  *  bı   | 
c3/2d/c2 d2e2 dcd2 {e}d2e2  | d3/2c/B2 d2c2 d2c4B2  | \
w:  öl *  *  dü rür  *  *  her   |  dem  *  *  be ni    | 
(3cBc(3dcB BAA2 {B}AGe3/2d/ {e}d2e2  | 
w:  öl *  *  *  *  *  dü *  rür  *  *  *  her   | 
cdcB {c}BAA4e/=f/e/d/ e^fg2  | g/f/g/a/gf ^2/4fee2 {=f}eda2 g2fe  | 
w:  dem  *  *  *  *  be *  ni   SAZ  |  Böy *  *  *  *  *  le  *  aş *  *  *  kın   | 
e2{^f}e2 edd2 {f}edd4e2  | c3/2d/c2 d2e2 dcd2 {e}d2e2  | \
w:  ıs *  *  tı *  ra *  *  *  bı   |  öl *  *  dü rür  *  *  her   | 
d3/2c/B2 d2c2 d2c4B2  | 
w:  dem  *  *  be ni    | 
(3cBc(3dcB BAA2 {B}AGe3/2d/ {e}d2e2  | \
w:  öl *  *  *  *  *  dü *  rür  *  *  *  her   | 
cdcB {c}BAA4aa/g/ ^fga2  | 
w:  dem  *  *  *  *  be *  ni   SAZ  | 
g4 a2a/g/a/_1/4b/ ag^f3/2e/ d2z2  | \
w:  Gös ter  Al *  *  *  *  *  lah   | 
g2^f2 g2a2 {c'}_1/4baa6  | g2f2 aee2 {f}edd2 (3cBAA2  | 
w:  aş *  kı na  *  *  *  bir   |  ker *  re  *  ol *  *  *  sun   | 
d2{e}d2 e2e4a3/2g/ fed2  | g2^f2 g2a2 {c'}_1/4bag3/2^3/4f/ {g}fe{f}e2  | \
w:  han *  *  de ni  bir   |  ker *  re  ol *  *  *  sun   | 
d2{e}d2 e2e4e/=f/e/d/ e^fg2  | 
w:  han *  *  de ni   SAZ  | 
g/f/g/a/gf ^2/4fee2 {=f}eda2 g2fe  | \
w:  Böy *  *  *  *  *  le  *  aş *  *  *  kın   | 
e2{^f}e2 edd2 {f}edd4e2  | 
w:  ıs *  *  tı *  ra *  *  *  bı   | 
c3/2d/c2 d2e2 dcd2 {e}d2e2  | d3/2c/B2 d2c2 d2c4B2  | \
w:  öl *  *  dü rür  *  *  her   |  dem  *  *  be ni    | 
(3cBc(3dcB BAA2 {B}AGe3/2d/ {e}d2e2  | 
w:  öl *  *  *  *  *  dü *  rür  *  *  *  her   | 
cdcB {c}BAA4e/=f/e/d/ e^fg2  | g/f/g/a/gf ^2/4fee2 {=f}eda2 g2fe  | 
w:  dem  *  *  *  *  be *  ni   SAZ  |  Böy *  *  *  *  *  le  *  aş *  *  *  kın   | 
e2{^f}e2 edd2 {f}edd4e2  | c3/2d/c2 d2e2 dcd2 {e}d2e2  | \
w:  ıs *  *  tı *  ra *  *  *  bı   |  öl *  *  dü rür  *  *  her   | 
d3/2c/B2 d2c2 d2c4B2  | 
w:  dem  *  *  be ni    | 
(3cBc(3dcB BAA2 {B}AGe3/2d/ {e}d2e2  | \
w:  öl *  *  *  *  *  dü *  rür  *  *  *  her   | 
cdcB {c}BAA4|
w:  dem  *  *  *  *  be *  ni    | 


